assets/logos/svg/logo-facebook.svg

<svg width="18px" height="18px" viewBox="0 0 18 18" version="1.1" xmlns="http://www.w3.org/2000/svg" xmlns:xlink="http://www.w3.org/1999/xlink">
    <g id="Page-1" stroke="none" stroke-width="1" fill="none" fill-rule="evenodd">
        <g id="Desktop-HD-Copy-9" transform="translate(-1212.000000, -317.000000)" fill="#E9E9E9">
            <g id="fb-vecteezy_social-media-icons-set-facebook-instagram-twitter-logos_-[Converti]-01" transform="translate(1212.000000, 317.000000)">
                <path d="M18,3.96486486 L18,14.0351351 C18,16.2243243 16.2243243,18 14.0351351,18 L10.1189189,18 C10.1189189,18 10.1189189,13.6216216 10.1189189,10.0702703 L12.4783784,10.0702703 L12.5756757,8.82972973 L12.7702703,6.90810811 L10.2405405,6.90810811 L10.2405405,5.64324324 C10.2405405,5.03513514 10.6540541,4.88918919 10.9459459,4.88918919 C11.2135135,4.88918919 12.7216216,4.88918919 12.7216216,4.88918919 L12.7216216,2.16486486 L10.2648649,2.16486486 C7.54054054,2.16486486 6.93243243,4.18378378 6.93243243,5.47297297 L6.93243243,6.90810811 L5.35135135,6.90810811 L5.35135135,10.0702703 L6.93243243,10.0702703 C6.93243243,13.6702703 6.93243243,18 6.93243243,18 L3.96486486,18 C1.77567568,18 0,16.2243243 0,14.0351351 L0,3.96486486 C0,1.8 1.77567568,0 3.96486486,0 L14.0351351,0 C16.2243243,0 18,1.77567568 18,3.96486486 Z" id="Path"></path>
            </g>
        </g>
    </g>
</svg>

<svg xmlns="http://www.w3.org/2000/svg" width="18" height="18"><path fill-rule="evenodd" d="M18 3.965v10.07A3.966 3.966 0 0 1 14.035 18H10.12v-7.93h2.36l.097-1.24.194-1.922h-2.53V5.643c0-.608.414-.754.706-.754h1.776V2.165h-2.457c-2.724 0-3.333 2.019-3.333 3.308v1.435h-1.58v3.162h1.58V18H3.965A3.966 3.966 0 0 1 0 14.035V3.965C0 1.8 1.776 0 3.965 0h10.07A3.966 3.966 0 0 1 18 3.965Z"/></svg>
